projects/icons/svg/help.svg

<?xml version="1.0" encoding="UTF-8" standalone="no"?>
<svg
   viewBox="0 0 700 700"
   version="1.1"
   id="svg9724"
   sodipodi:docname="help.svg"
   inkscape:version="1.3.2 (091e20ef0f, 2023-11-25)"
   width="700"
   height="700"
   xmlns:inkscape="http://www.inkscape.org/namespaces/inkscape"
   xmlns:sodipodi="http://sodipodi.sourceforge.net/DTD/sodipodi-0.dtd"
   xmlns="http://www.w3.org/2000/svg"
   xmlns:svg="http://www.w3.org/2000/svg">
  <defs
     id="defs9728" />
  <sodipodi:namedview
     id="namedview9726"
     pagecolor="#ffffff"
     bordercolor="#666666"
     borderopacity="1.0"
     inkscape:showpageshadow="2"
     inkscape:pageopacity="0.0"
     inkscape:pagecheckerboard="0"
     inkscape:deskcolor="#d1d1d1"
     showgrid="true"
     inkscape:zoom="0.59480855"
     inkscape:cx="313.54627"
     inkscape:cy="328.67719"
     inkscape:window-width="1920"
     inkscape:window-height="1048"
     inkscape:window-x="0"
     inkscape:window-y="0"
     inkscape:window-maximized="1"
     inkscape:current-layer="svg9724"
     showguides="true">
    <inkscape:grid
       type="xygrid"
       id="grid9972"
       originx="0"
       originy="0"
       spacingy="1"
       spacingx="1"
       units="px"
       visible="true" />
    <sodipodi:guide
       position="-260,300"
       orientation="0,-1"
       id="guide383"
       inkscape:locked="false" />
    <sodipodi:guide
       position="300,520"
       orientation="1,0"
       id="guide385"
       inkscape:locked="false" />
    <sodipodi:guide
       position="240,520"
       orientation="0,-1"
       id="guide939"
       inkscape:locked="false" />
    <sodipodi:guide
       position="220,80"
       orientation="0,-1"
       id="guide941"
       inkscape:locked="false" />
    <sodipodi:guide
       position="560,200"
       orientation="0,-1"
       id="guide1806"
       inkscape:locked="false" />
    <sodipodi:guide
       position="0,0"
       orientation="0.70710678,-0.70710678"
       id="guide1803"
       inkscape:locked="false" />
    <sodipodi:guide
       position="600,0"
       orientation="-0.70710678,-0.70710678"
       id="guide1805"
       inkscape:locked="false" />
  </sodipodi:namedview>
  <g
     id="g1"
     transform="translate(50,50)">
    <path
       id="path345"
       style="color:#000000;fill:#000000;stroke-linecap:round;stroke-linejoin:round;-inkscape-stroke:none;paint-order:stroke fill markers"
       d="M 300,0 C 134.7887,0 0,134.7887 0,300 0,465.2113 134.7887,600 300,600 465.2113,600 600,465.2113 600,300 600,134.7887 465.2113,0 300,0 Z m 0,80 c 46.4572,0 89.41653,14.250947 124.83203,38.59766 l -51.04492,51.04492 C 351.94958,157.17622 326.76409,150 300,150 c -26.76409,0 -51.94958,7.17622 -73.78711,19.64258 L 175.16797,118.59766 C 210.58347,94.250947 253.5428,80 300,80 Z m -181.40234,95.16797 51.04492,51.04492 C 157.17622,248.05042 150,273.23591 150,300 c 0,26.76409 7.17622,51.94958 19.64258,73.78711 l -51.04492,51.04492 C 94.250947,389.41653 80,346.4572 80,300 80,253.5428 94.250947,210.58347 118.59766,175.16797 Z m 362.80468,0 C 505.74905,210.58347 520,253.5428 520,300 c 0,46.4572 -14.25095,89.41653 -38.59766,124.83203 L 430.35742,373.78711 C 442.82378,351.94958 450,326.76409 450,300 c 0,-26.76409 -7.17622,-51.94958 -19.64258,-73.78711 z M 300,230 c 39.13364,0 70,30.86636 70,70 0,39.13364 -30.86636,70 -70,70 -39.13364,0 -70,-30.86636 -70,-70 0,-39.13364 30.86636,-70 70,-70 z M 226.21289,430.35742 C 248.05042,442.82378 273.23591,450 300,450 c 26.76409,0 51.94958,-7.17622 73.78711,-19.64258 l 51.04492,51.04492 C 389.41653,505.74905 346.4572,520 300,520 253.5428,520 210.58347,505.74905 175.16797,481.40234 Z" />
  </g>
</svg>

<?xml version="1.0" encoding="UTF-8" standalone="no"?>
<svg
   viewBox="0 0 600 600"
   version="1.1"
   id="svg9724"
   sodipodi:docname="help.svg"
   inkscape:version="1.2.2 (1:1.2.2+202212051550+b0a8486541)"
   width="600"
   height="600"
   xmlns:inkscape="http://www.inkscape.org/namespaces/inkscape"
   xmlns:sodipodi="http://sodipodi.sourceforge.net/DTD/sodipodi-0.dtd"
   xmlns="http://www.w3.org/2000/svg"
   xmlns:svg="http://www.w3.org/2000/svg">
  <defs
     id="defs9728" />
  <sodipodi:namedview
     id="namedview9726"
     pagecolor="#ffffff"
     bordercolor="#666666"
     borderopacity="1.0"
     inkscape:showpageshadow="2"
     inkscape:pageopacity="0.0"
     inkscape:pagecheckerboard="0"
     inkscape:deskcolor="#d1d1d1"
     showgrid="true"
     inkscape:zoom="0.59480855"
     inkscape:cx="27.740018"
     inkscape:cy="426.18755"
     inkscape:window-width="1920"
     inkscape:window-height="1009"
     inkscape:window-x="0"
     inkscape:window-y="1080"
     inkscape:window-maximized="1"
     inkscape:current-layer="svg9724"
     showguides="true">
    <inkscape:grid
       type="xygrid"
       id="grid9972"
       originx="0"
       originy="0" />
    <sodipodi:guide
       position="-260,300"
       orientation="0,-1"
       id="guide383"
       inkscape:locked="false" />
    <sodipodi:guide
       position="300,520"
       orientation="1,0"
       id="guide385"
       inkscape:locked="false" />
    <sodipodi:guide
       position="240,520"
       orientation="0,-1"
       id="guide939"
       inkscape:locked="false" />
    <sodipodi:guide
       position="220,80"
       orientation="0,-1"
       id="guide941"
       inkscape:locked="false" />
    <sodipodi:guide
       position="560,200"
       orientation="0,-1"
       id="guide1806"
       inkscape:locked="false" />
    <sodipodi:guide
       position="0,0"
       orientation="0.70710678,-0.70710678"
       id="guide1803"
       inkscape:locked="false" />
    <sodipodi:guide
       position="600,0"
       orientation="-0.70710678,-0.70710678"
       id="guide1805"
       inkscape:locked="false" />
  </sodipodi:namedview>

  <path
     id="path345"
     style="color:#000000;fill:#000000;stroke-linecap:round;stroke-linejoin:round;-inkscape-stroke:none;paint-order:stroke fill markers"
     d="M 300 0 C 134.7887 0 0 134.7887 0 300 C 0 465.2113 134.7887 600 300 600 C 465.2113 600 600 465.2113 600 300 C 600 134.7887 465.2113 0 300 0 z M 300 80 C 346.4572 80 389.41653 94.250947 424.83203 118.59766 L 373.78711 169.64258 C 351.94958 157.17622 326.76409 150 300 150 C 273.23591 150 248.05042 157.17622 226.21289 169.64258 L 175.16797 118.59766 C 210.58347 94.250947 253.5428 80 300 80 z M 118.59766 175.16797 L 169.64258 226.21289 C 157.17622 248.05042 150 273.23591 150 300 C 150 326.76409 157.17622 351.94958 169.64258 373.78711 L 118.59766 424.83203 C 94.250947 389.41653 80 346.4572 80 300 C 80 253.5428 94.250947 210.58347 118.59766 175.16797 z M 481.40234 175.16797 C 505.74905 210.58347 520 253.5428 520 300 C 520 346.4572 505.74905 389.41653 481.40234 424.83203 L 430.35742 373.78711 C 442.82378 351.94958 450 326.76409 450 300 C 450 273.23591 442.82378 248.05042 430.35742 226.21289 L 481.40234 175.16797 z M 300 230 C 339.13364 230 370 260.86636 370 300 C 370 339.13364 339.13364 370 300 370 C 260.86636 370 230 339.13364 230 300 C 230 260.86636 260.86636 230 300 230 z M 226.21289 430.35742 C 248.05042 442.82378 273.23591 450 300 450 C 326.76409 450 351.94958 442.82378 373.78711 430.35742 L 424.83203 481.40234 C 389.41653 505.74905 346.4572 520 300 520 C 253.5428 520 210.58347 505.74905 175.16797 481.40234 L 226.21289 430.35742 z " />
</svg>
